vendor/shopware/storefront/Resources/app/storefront/dist/assets/icon/default/plus-circle.svg

<svg xmlns="http://www.w3.org/2000/svg" width="24" height="24" viewBox="0 0 24 24">
  <path fill="#758CA3" fill-rule="evenodd" d="M11,11 L11,7 C11,6.44771525 11.4477153,6 12,6 C12.5522847,6 13,6.44771525 13,7 L13,11 L17,11 C17.5522847,11 18,11.4477153 18,12 C18,12.5522847 17.5522847,13 17,13 L13,13 L13,17 C13,17.5522847 12.5522847,18 12,18 C11.4477153,18 11,17.5522847 11,17 L11,13 L7,13 C6.44771525,13 6,12.5522847 6,12 C6,11.4477153 6.44771525,11 7,11 L11,11 Z M12,2 C6.4771525,2 2,6.4771525 2,12 C2,17.5228475 6.4771525,22 12,22 C17.5228475,22 22,17.5228475 22,12 C22,6.4771525 17.5228475,2 12,2 Z M24,12 C24,18.627417 18.627417,24 12,24 C5.372583,24 8.11624501e-16,18.627417 0,12 C6.29380286e-15,5.372583 5.372583,3.29258647e-16 12,-8.8817842e-16 C18.627417,-3.29258647e-16 24,5.372583 24,12 Z"/>
</svg>

<svg xmlns="http://www.w3.org/2000/svg" width="24" height="24" viewBox="0 0 24 24"><path fill="#758CA3" fill-rule="evenodd" d="M11 11V7c0-.5523.4477-1 1-1s1 .4477 1 1v4h4c.5523 0 1 .4477 1 1s-.4477 1-1 1h-4v4c0 .5523-.4477 1-1 1s-1-.4477-1-1v-4H7c-.5523 0-1-.4477-1-1s.4477-1 1-1h4zm1-9C6.4772 2 2 6.4772 2 12s4.4772 10 10 10 10-4.4772 10-10S17.5228 2 12 2zm12 10c0 6.6274-5.3726 12-12 12S0 18.6274 0 12 5.3726 0 12 0s12 5.3726 12 12z"/></svg>
